X:35
T:Hill's Hornpipe (Craig 35)
M:C
L:1/8
B:Empire Violin Collection of Hornpipes
H:Published by Thomas Craig
H:Music Publisher, &c.
H:George Street, Aberdeen, N.B.
Z:Peter Dunk December 2011
R:hornpipe
Q:1/4=140
K:Bb
(de) | f>bd>f B>dF>B | D>B,D>F B2 (3 FGA | B>FD>F d>cB>d | f>ed>e c2 d>e |!
f>bd>f B>dF>G | D>B,D>F B2 (3 FGA | B>FB>d c>eA>c | B2B2B2:|!
|: (BA) | B>df>a b>ag^f | g>^fg>a g2 cB | A>FA>c e>gf>e | d>cd>e f2 (dc) |!
B>df>g b>fd>D | E>Gc>e g>ec>E | D>FB>d c>eA>c | B2b2B2 :|

